X: 137014
Q: "Irish Jig."
M: 6/8
L: 1/8
K: A
uE |\
ue |:\
vf2vf ue2uc | a2a g2e | aba g2e | f3 e2e |\
f2f e2c | a2a g2e | a2a g2f | x3 "^1st"cde & efc "_2nd"cdB |]


